X: 04071
T: The OLD WOODEN FLUTE
C: Bob McQuillen 17 May 79
B: Bob's Note Book 04 #71
%R: reel
Z: 2020 John Chambers <jc:trillian.mit.edu>
M: C
L: 1/8
K: D
FG \
| Adfe dcBA | Bdgf edcB | ceab agfe | dcde fd FG |
| Adfe dcBA | Bdgf edcB | ceab agfe | dfec d2 :|
|: FG \
| AFfd AFfd | BGge BGge | cAge cABc | dAfd AGFG |
| AFfd AFfd | BGge BGge | cAge cABc | e2d2 d2  :|
%%begintext align
%% There's nothing that makes
%% prettier music than one of
%% the old flutes. I adore them.
%%endtext

%%sep 1 1 500

%%sep 1 1 500

